icons/AdobeLightroomColor.svg

<svg width="16" height="16" viewBox="0 0 16 16" fill="none" xmlns="http://www.w3.org/2000/svg">
<g clip-path="url(#clip0_2180_4607)">
<path d="M2.83333 0.200012H13.1667C14.7333 0.200012 16 1.46668 16 3.03335V12.9667C16 14.5333 14.7333 15.8 13.1667 15.8H2.83333C1.26667 15.8 0 14.5333 0 12.9667V3.03335C0 1.46668 1.26667 0.200012 2.83333 0.200012Z" fill="#001E36"/>
<path d="M8.4001 11.2267H4.17343C4.1001 11.2267 4.06677 11.1867 4.06677 11.1067V4.29334C4.0601 4.24667 4.09343 4.20667 4.1401 4.2C4.14677 4.2 4.15343 4.2 4.16677 4.2H5.47343C5.50677 4.19334 5.54677 4.22 5.54677 4.25334C5.54677 4.26 5.54677 4.26667 5.54677 4.27334V9.87334H8.62677C8.69343 9.87334 8.71343 9.90667 8.7001 9.96667L8.50677 11.1267C8.50677 11.16 8.48677 11.1867 8.46677 11.2067C8.44677 11.22 8.42677 11.2267 8.4001 11.2267Z" fill="#31A8FF"/>
<path d="M9.4667 5.89334H10.6334C10.7 5.89334 10.7534 5.94001 10.7734 6.00001C10.8 6.04668 10.82 6.10001 10.8267 6.15334C10.84 6.22001 10.8534 6.29334 10.86 6.36001C10.8667 6.43334 10.8734 6.51334 10.8734 6.60001C11.0734 6.36668 11.3134 6.17334 11.5867 6.02668C11.8934 5.86001 12.2334 5.78001 12.58 5.78668C12.6267 5.78001 12.6667 5.81334 12.6734 5.86001C12.6734 5.86668 12.6734 5.87334 12.6734 5.88668V7.18668C12.6734 7.24001 12.64 7.26001 12.5667 7.26001C12.1334 7.23334 11.7 7.31334 11.3067 7.48668C11.1734 7.54668 11.0467 7.62668 10.9467 7.73334V11.1333C10.9467 11.2 10.92 11.2267 10.86 11.2267H9.56003C9.5067 11.2333 9.46003 11.2 9.45337 11.1467C9.45337 11.14 9.45337 11.1267 9.45337 11.12V7.42668C9.45337 7.26668 9.45337 7.10001 9.4467 6.92668C9.44003 6.75334 9.44003 6.58001 9.43337 6.40668C9.4267 6.26001 9.41337 6.11334 9.39337 5.96668C9.3867 5.93334 9.4067 5.90001 9.44003 5.89334C9.4467 5.88668 9.45337 5.88668 9.4667 5.89334Z" fill="#31A8FF"/>
</g>
<defs>
<clipPath id="clip0_2180_4607">
<rect width="16" height="16" fill="white"/>
</clipPath>
</defs>
</svg>

<svg width="16" height="16" fill="none" xmlns="http://www.w3.org/2000/svg"><g clip-path="url(#a)"><path d="M2.833.2h10.334A2.831 2.831 0 0 1 16 3.033v9.934a2.831 2.831 0 0 1-2.833 2.833H2.833A2.831 2.831 0 0 1 0 12.967V3.033A2.831 2.831 0 0 1 2.833.2z" fill="#001E36"/><path d="M8.4 11.227H4.173c-.073 0-.106-.04-.106-.12V4.293c-.007-.046.026-.086.073-.093h1.333c.034-.007.074.02.074.053V9.873h3.08c.066 0 .086.034.073.094l-.193 1.16c0 .033-.02.06-.04.08a.113.113 0 0 1-.067.02zM9.467 5.893h1.166a.15.15 0 0 1 .14.107c.027.047.047.1.054.153a2.21 2.21 0 0 1 .046.447c.2-.233.44-.427.714-.573a1.99 1.99 0 0 1 .993-.24c.047-.007.087.026.093.073v1.327c0 .053-.033.073-.106.073a2.717 2.717 0 0 0-1.26.227c-.134.06-.26.14-.36.246v3.4c0 .067-.027.094-.087.094h-1.3c-.053.006-.1-.027-.107-.08v-3.72c0-.16 0-.327-.006-.5-.007-.174-.007-.347-.014-.52a4.903 4.903 0 0 0-.04-.44.061.061 0 0 1 .047-.074c.007-.006.013-.006.027 0z" fill="#31A8FF"/></g><defs><clipPath id="a"><path fill="#fff" d="M0 0h16v16H0z"/></clipPath></defs></svg>
